X:21
T:Lou Pitchiout Om
M:3/8
L:1/8
R:Bourre
N:La Bourre 4th edition 1929, page 36
Z:Steve Mansfield www.lesession.co.uk May 2012
K:C
G | c2 d | d/ d/ f e | d e d | c2 d |
d/ d/ f e | d2 d/ d/ | g f/ e/ d | c - c/ d/ e/ d/ |
c c d/ d/ | g f/ e/ d | c/ d/ e/ d/ c/ B/ | !fermata! c3 |]
<end>
<start>
